X:1
T:Title
%%score ( 1 2 ) { 3 | 4 }
L:1/8
M:4/4
K:A
V:1 treble nm="Bright Piano"
V:2 treble 
V:3 bass nm="Bright Piano"
V:4 bass 
V:1
 z4 z[Q:1/4=100] ECE | [CA]3 [EA] [EB]2 [Ec]2 | [Fd]6 [Ec]2 | [FB]2 [FB]2 BAGA | [EB]4 z ECE | %5
 [CA]3 [EA] cBAB | [Ec]6 dB | [EA]2 [EA]2 AGFG | [CA]4 z2 E2 | [EG]2 E2 [EB]2 [EG]2 | %10
 [EA]2 [DE]2 [Cc]2 [EA]2 | [EG]2 E2 [EB]2 [EG]2 | [EA]2 [DE]2 [Cc]2 [Ec]2 | %13
 [Fd]3 [Fd] [Fc]2 [FB]2 | [EA]4 [EG]4 |[M:5/8] [EA]- [EA]3 z |] %16
V:2
 x8 | x8 | x8 | z4 F2 ^D2 | x8 | z4 E2 E2 | z4 z2 F2 | z4 D2 D2 | x8 | x8 | x8 | x8 | x8 | x8 | %14
 x8 |[M:5/8] x5 |] %16
V:3
 z4 z E,C,E, | E,3 A, G,2 A,2 | A,6 A,2 | A,2 A,2 A,2 A,2 | G,4 z E,C,E, | E,3 A, A,G,F,G, | %6
 A,6 A,D | C2 C2 B,2 B,2 | A,4 z2 G,2 | B,2 G,2 G,2 B,2 | A,2 G,2 A,2 A,2 | B,2 G,2 G,2 B,2 | %12
 A,2 G,2 A,2 A,2 | A,3 B, A,2 B,2 | C4 B,2 D2 |[M:5/8] C- C3 z |] %16
V:4
 z8 | A,,3 C, E,2 z2 | D,6 A,,2 | D,2 D,2 ^D,2 F,2 | E,4 z4 | A,,3 C, E,2 E,2 | A,,6 D,2 | %7
 E,2 E,2 E,2 E,2 | A,,4 z2 E,2 | E,2 E,2 D,2 D,2 | C,2 B,,2 A,,2 C,2 | E,2 E,2 D,2 D,2 | %12
 C,2 B,,2 A,,2 A,,2 | D,3 B,, C,2 D,2 | E,4 E,4 |[M:5/8] A,,- A,,3 z |] %16

